dist/svgs/core-ui-icons/free/cil-graph.svg

<svg xmlns="http://www.w3.org/2000/svg" viewBox="0 0 512 512"><path d="M432 32a63.973 63.973 0 00-34.344 117.963L355.894 296.13A64.372 64.372 0 00352 296a63.659 63.659 0 00-38.193 12.678l-77.154-64.295A64 64 0 10131.259 269.7l-45.292 90.588A64.334 64.334 0 0080 360a64.082 64.082 0 1036.243 11.29l42.8-85.589a63.845 63.845 0 0059.982-14.356l74.7 62.252a64 64 0 1092.621-27.56l41.76-146.167c1.289.078 2.585.13 3.894.13a64 64 0 000-128zM80 456a32 32 0 1132-32 32.036 32.036 0 01-32 32zm96-200a32 32 0 1132-32 32.036 32.036 0 01-32 32zm176 136a32 32 0 1132-32 32.036 32.036 0 01-32 32zm80-264a32 32 0 1132-32 32.036 32.036 0 01-32 32z"/></svg>

<svg xmlns="http://www.w3.org/2000/svg" viewBox="0 0 512 512">
  <path fill="var(--ci-primary-color, currentColor)" d="M432,32a63.973,63.973,0,0,0-34.344,117.963L355.894,296.13c-1.289-.078-2.585-.13-3.894-.13a63.659,63.659,0,0,0-38.193,12.678l-77.154-64.295A64,64,0,1,0,131.259,269.7L85.967,360.288C84,360.105,82.013,360,80,360a64.082,64.082,0,1,0,36.243,11.29l42.8-85.589a63.845,63.845,0,0,0,59.982-14.356l74.7,62.252a64,64,0,1,0,92.621-27.56L428.106,159.87c1.289.078,2.585.13,3.894.13a64,64,0,0,0,0-128ZM80,456a32,32,0,1,1,32-32A32.036,32.036,0,0,1,80,456Zm96-200a32,32,0,1,1,32-32A32.036,32.036,0,0,1,176,256ZM352,392a32,32,0,1,1,32-32A32.036,32.036,0,0,1,352,392Zm80-264a32,32,0,1,1,32-32A32.036,32.036,0,0,1,432,128Z" class="ci-primary"/>
</svg>
